X: 6939
T: Cheshire Round
R: three-two
M: 3/2
K: Dmajor
|:d2cB ABAF E4|c2e2 e2B2 c2e2|d2cB ABAF E4|D2d2 d2F2 E2D2:|
|:d2f2 efec B4|c2e2 e2B2 c2e2|d2f2 efec B4|A2d2 d2F2 E2D2:|
|:edcB AGFD E4|E2A2 A2E2 F2A2|edcB AGFE D4|D2d2 d2F2 E2D2:|

